X:1
T:The Scranky Black Farmer
M:3/4
L:1/4
K:C
 D3/4 E/4| F E D| C D F3/4 G/4| C c E| D2 D3/4- E/4| F G A| c G c|\
 d c B| A2 D3/4- E/4| F G A| c G c| d c B| A2D/2-E/2| FE/2-D/2E/2-D/2|\
 C DF/2-G/2| A c E| D2||

